brandFactory_export/3.Masa/Oso peluche_3Masa.svg

<?xml version="1.0" encoding="UTF-8"?>
<svg width="24px" height="24px" viewBox="0 0 24 24" version="1.1" xmlns="http://www.w3.org/2000/svg" xmlns:xlink="http://www.w3.org/1999/xlink">
    <title>3.Masa/Oso peluche_3Masa</title>
    <g id="Symbols" stroke="none" stroke-width="1" fill="none" fill-rule="evenodd">
        <g id="3.Masa/Oso-peluche_3Masa" fill="#5CB615" fill-rule="nonzero">
            <path d="M7.82016807,6.09747899 C7.6789916,5.96638655 7.61176471,5.77815126 7.61176471,5.52941176 C7.61176471,5.27731092 7.68235294,5.08571429 7.82016807,4.95798319 C7.95462185,4.83361345 8.14957983,4.7697479 8.39831933,4.7697479 C8.64705882,4.7697479 8.84201681,4.8302521 8.97647059,4.95798319 C9.11428571,5.08907563 9.18823529,5.28067227 9.18823529,5.52941176 C9.18823529,5.77815126 9.11428571,5.9697479 8.97647059,6.09747899 C8.84201681,6.22184874 8.64705882,6.28571429 8.39831933,6.28571429 C8.14957983,6.28571429 7.95462185,6.22184874 7.82016807,6.09747899 L7.82016807,6.09747899 Z M21.0907563,18.7193277 C21.1478992,18.2420168 20.9630252,17.8756303 20.7243697,17.6537815 C20.4857143,17.4319328 20.0991597,17.3142857 19.5815126,17.3142857 C19.0638655,17.3142857 18.6806723,17.4285714 18.4386555,17.6537815 C18.189916,17.8857143 18.0621849,18.2621849 18.0621849,18.7798319 C18.0621849,18.7966387 18.0521008,18.8134454 18.0521008,18.8336134 L17.8403361,20.8470588 C17.8436975,21.287395 17.9512605,21.6168067 18.1663866,21.8151261 C18.3747899,22.0067227 18.7176471,22.107563 19.1781513,22.107563 C19.6352941,22.107563 19.9747899,22.0067227 20.1865546,21.8151261 C20.2369748,21.7647059 20.2773109,21.7042017 20.3176471,21.6436975 C20.3176471,21.6403361 21,19.4655462 21.0907563,18.7193277 L21.0907563,18.7193277 Z M5.51092437,21.8117647 C5.72605042,21.6134454 5.8302521,21.287395 5.83697479,20.8436975 L5.62521008,18.8302521 C5.62521008,18.8134454 5.61512605,18.7966387 5.61512605,18.7764706 C5.61512605,18.2621849 5.48739496,17.8823529 5.24201681,17.6504202 C4.99663866,17.4252101 4.61344538,17.3109244 4.09579832,17.3109244 C3.57815126,17.3109244 3.19495798,17.4252101 2.95294118,17.6504202 C2.71428571,17.8722689 2.53277311,18.2386555 2.58655462,18.7159664 C2.67394958,19.4655462 3.35966387,21.6369748 3.35966387,21.6369748 C3.39663866,21.7008403 3.43697479,21.7613445 3.4907563,21.8084034 C3.70252101,22 4.03865546,22.1008403 4.49915966,22.1008403 C4.95966387,22.107563 5.29915966,22.0067227 5.51092437,21.8117647 L5.51092437,21.8117647 Z M3.32941176,12.4537815 C2.01848739,13.9361345 2.86554622,15.0386555 3.48739496,15.5630252 L3.68235294,15.7243697 C3.71596639,15.7512605 3.7697479,15.7882353 3.81680672,15.8184874 C3.84369748,15.8184874 3.87394958,15.8117647 3.90084034,15.8117647 C3.88403361,15.5764706 3.85378151,15.3478992 3.85378151,15.102521 C3.85378151,13.7378151 4.10252101,12.5546218 4.54285714,11.5294118 C4.10252101,11.7882353 3.62521008,12.1243697 3.32941176,12.4537815 L3.32941176,12.4537815 Z M5.41680672,3.80840336 C5.72605042,2.97815126 6.18655462,2.27563025 6.79831933,1.69747899 C6.32436975,1.5092437 5.8605042,1.65378151 5.42352941,2.14789916 C4.89243697,2.75294118 4.90252101,3.30756303 5.41680672,3.80840336 Z M11.8369748,1.51596639 C10.1226891,1.51596639 8.80504202,1.93613445 7.91764706,2.76302521 C7,3.61680672 6.53277311,4.9210084 6.53277311,6.63529412 C6.53277311,8.34957983 7,9.64705882 7.91764706,10.497479 C8.6605042,11.1865546 9.72605042,11.5731092 11.0571429,11.687395 L11.0571429,7.92941176 C10.8722689,7.85210084 10.7042017,7.75462185 10.5630252,7.62352941 C10.3781513,7.45210084 10.2739496,7.2907563 10.1865546,7.04201681 C10.1865546,7.04201681 10.1327731,6.8605042 10.1327731,6.72268908 C10.1327731,6.60504202 10.2,6.43697479 10.2,6.43697479 C10.287395,6.25882353 10.3781513,6.13109244 10.5193277,5.99663866 C10.8453782,5.69747899 11.2890756,5.54285714 11.8336134,5.53277311 C12.3815126,5.54285714 12.8252101,5.69747899 13.1478992,5.99663866 C13.292437,6.12773109 13.3831933,6.25882353 13.4672269,6.43697479 C13.4672269,6.43697479 13.5344538,6.60840336 13.5344538,6.72268908 C13.5344538,6.85714286 13.4840336,7.04201681 13.4840336,7.04201681 C13.3966387,7.29411765 13.292437,7.45210084 13.107563,7.62352941 C12.9663866,7.75462185 12.7983193,7.85546218 12.6134454,7.92941176 L12.6134454,11.687395 C13.9445378,11.5764706 15.010084,11.189916 15.7563025,10.497479 C16.6739496,9.64705882 17.1378151,8.34621849 17.1378151,6.63529412 C17.1378151,4.9210084 16.6739496,3.61680672 15.7563025,2.76302521 C14.8689076,1.93613445 13.5512605,1.51596639 11.8369748,1.51596639 Z M18.2504202,2.14789916 C17.8134454,1.65378151 17.3495798,1.5092437 16.8756303,1.69747899 C17.487395,2.27563025 17.9512605,2.97815126 18.2605042,3.80840336 C18.7747899,3.30756303 18.7848739,2.75294118 18.2504202,2.14789916 L18.2504202,2.14789916 Z M20.3445378,12.4537815 C20.0521008,12.1243697 19.5747899,11.7882353 19.1310924,11.5327731 C19.5714286,12.5579832 19.8168067,13.7411765 19.8168067,15.1058824 C19.8168067,15.3512605 19.7865546,15.5798319 19.7697479,15.8151261 C19.7966387,15.8151261 19.8268908,15.8218487 19.8537815,15.8218487 C19.9008403,15.7915966 19.9579832,15.7512605 19.9882353,15.7277311 L20.1865546,15.5663866 C20.8084034,15.0386555 21.6554622,13.9361345 20.3445378,12.4537815 Z M21.8201681,16.5647059 C22.3613445,17.0689076 22.6403361,17.7176471 22.6638655,18.605042 C22.6638655,18.6420168 22.6571429,18.7831933 22.6436975,18.8672269 C22.6336134,18.9613445 22.5932773,19.189916 22.5932773,19.189916 L21.8134454,22.1378151 C21.8067227,22.1714286 21.7831933,22.1983193 21.7697479,22.2319328 C21.7630252,22.2554622 21.7630252,22.2789916 21.7495798,22.2991597 C21.7428571,22.312605 21.7294118,22.3226891 21.7226891,22.3361345 C21.6991597,22.3697479 21.6789916,22.4 21.6487395,22.4268908 C21.5411765,22.5983193 21.4268908,22.7697479 21.2789916,22.907563 C20.7647059,23.3815126 20.0588235,23.6235294 19.1747899,23.6235294 C18.2907563,23.6235294 17.5815126,23.3815126 17.0705882,22.907563 C16.7344538,22.5983193 16.512605,22.1983193 16.3848739,21.7378151 C15.1915966,22.3932773 13.7092437,22.7193277 11.8941176,22.7193277 C11.8705882,22.7193277 11.8571429,22.7159664 11.8336134,22.7159664 C11.8134454,22.7159664 11.7932773,22.7193277 11.7731092,22.7193277 C9.95798319,22.7193277 8.4789916,22.3932773 7.28235294,21.7378151 C7.15462185,22.2016807 6.93613445,22.5983193 6.6,22.907563 C6.08235294,23.3815126 5.37310924,23.6235294 4.49579832,23.6235294 C3.61176471,23.6235294 2.90588235,23.3815126 2.39159664,22.907563 C2.24033613,22.7697479 2.12941176,22.5983193 2.01848739,22.4268908 C1.99495798,22.4 1.96806723,22.3697479 1.94789916,22.3361345 C1.93781513,22.3226891 1.92436975,22.312605 1.91764706,22.2991597 C1.90756303,22.2789916 1.90756303,22.2521008 1.89747899,22.2319328 C1.88403361,22.1983193 1.86386555,22.1714286 1.85378151,22.1378151 L1.07394958,19.189916 C1.07394958,19.189916 1.03361345,18.9647059 1.02016807,18.8672269 C1.00672269,18.7831933 1,18.6453782 1,18.605042 C1.02689076,17.7210084 1.29915966,17.0722689 1.84369748,16.5647059 C1.9210084,16.4941176 2.00840336,16.4403361 2.09579832,16.3798319 C0.996638655,15.2268908 0.431932773,13.3747899 2.12268908,11.4689076 C2.8487395,10.6487395 4.41848739,9.7210084 5.29243697,9.59327731 C5.35630252,9.58319328 5.38319328,9.55966387 5.45378151,9.54621849 C5.44033613,9.51932773 5.45378151,9.54621849 5.44369748,9.51932773 C5.1210084,8.68235294 4.94957983,7.72436975 4.94957983,6.63529412 C4.94957983,6.21512605 4.99327731,5.82184874 5.04369748,5.43865546 C5.02016807,5.42521008 4.98991597,5.43193277 4.96638655,5.41848739 C4.78823529,5.30756303 4.6907563,5.23697479 4.6302521,5.18655462 L4.46218487,5.05210084 C3.4907563,4.23193277 2.84537815,2.72268908 4.22352941,1.1697479 C5.59159664,-0.373109244 7.21848739,-0.0134453782 8.21008403,0.766386555 C9.21848739,0.275630252 10.4184874,0.00336134454 11.8369748,0.00336134454 C13.2554622,0.00336134454 14.4554622,0.275630252 15.4638655,0.766386555 C16.4554622,-0.0134453782 18.0857143,-0.373109244 19.4504202,1.1697479 C20.8285714,2.72268908 20.1831933,4.23193277 19.2084034,5.05210084 L19.0436975,5.18655462 C18.9798319,5.23697479 18.8823529,5.30756303 18.7042017,5.41848739 C18.6806723,5.43193277 18.6537815,5.42857143 18.6235294,5.43865546 C18.6739496,5.82521008 18.7176471,6.21512605 18.7176471,6.63529412 C18.7176471,7.72436975 18.5462185,8.68235294 18.2235294,9.51932773 L18.2134454,9.54621849 C18.2806723,9.55966387 18.307563,9.58319328 18.3714286,9.59327731 C19.2453782,9.7210084 20.8151261,10.6487395 21.5445378,11.4689076 C23.2319328,13.3747899 22.6672269,15.2235294 21.5680672,16.3798319 C21.6521008,16.4369748 21.7428571,16.4941176 21.8201681,16.5647059 Z M15.2756303,6.28571429 C15.0268908,6.28571429 14.8319328,6.22184874 14.697479,6.09747899 C14.5563025,5.9697479 14.4857143,5.77815126 14.4857143,5.52941176 C14.4857143,5.28067227 14.5563025,5.08571429 14.697479,4.96134454 C14.8319328,4.83361345 15.0302521,4.7697479 15.2756303,4.7697479 C15.5243697,4.7697479 15.7193277,4.83361345 15.8537815,4.96134454 C15.994958,5.08907563 16.0621849,5.28067227 16.0621849,5.52941176 C16.0621849,5.77815126 15.9915966,5.9697479 15.8537815,6.09747899 C15.7193277,6.22184874 15.5243697,6.28571429 15.2756303,6.28571429 Z" id="Oso-peluche_3Masa"></path>
        </g>
    </g>
</svg>

<svg width="24" height="24" viewBox="0 0 24 24" xmlns="http://www.w3.org/2000/svg"><path d="M7.82 6.097c-.141-.13-.208-.319-.208-.568 0-.252.07-.443.208-.571.135-.124.33-.188.578-.188.25 0 .444.06.578.188.138.131.212.323.212.571 0 .25-.074.44-.212.568-.134.125-.329.189-.578.189-.248 0-.443-.064-.578-.189zM21.09 18.72c.058-.477-.127-.843-.366-1.065-.238-.222-.625-.34-1.142-.34-.518 0-.901.115-1.143.34-.25.232-.377.608-.377 1.126 0 .017-.01.033-.01.054l-.212 2.013c.004.44.111.77.326.968.209.192.552.293 1.012.293.457 0 .797-.101 1.009-.293.05-.05.09-.11.13-.171 0-.004.683-2.178.774-2.925zM5.51 21.812c.216-.199.32-.525.327-.968l-.212-2.014c0-.017-.01-.033-.01-.054 0-.514-.128-.894-.373-1.126-.245-.225-.629-.34-1.146-.34-.518 0-.901.115-1.143.34-.239.222-.42.589-.366 1.066.087.75.773 2.921.773 2.921a.663.663 0 00.13.171c.213.192.549.293 1.01.293.46.007.8-.094 1.01-.29zm-2.18-9.358c-1.312 1.482-.464 2.585.157 3.109l.195.161c.034.027.088.064.135.094.027 0 .057-.006.084-.006-.017-.236-.047-.464-.047-.71 0-1.364.249-2.547.689-3.573-.44.26-.918.595-1.214.925zm2.087-8.646c.31-.83.77-1.532 1.381-2.11-.474-.189-.937-.044-1.374.45-.532.605-.521 1.16-.007 1.66zm6.42-2.292c-1.714 0-3.032.42-3.92 1.247C7 3.617 6.534 4.921 6.534 6.635c0 1.715.467 3.012 1.385 3.862.743.69 1.808 1.076 3.14 1.19V7.93a1.65 1.65 0 01-.495-.305 1.315 1.315 0 01-.376-.582s-.054-.181-.054-.32c0-.117.067-.285.067-.285.087-.178.178-.306.32-.44.325-.3.77-.454 1.314-.464.548.01.991.164 1.314.464.144.13.235.262.32.44 0 0 .066.171.066.286 0 .134-.05.319-.05.319-.087.252-.192.41-.376.582-.142.13-.31.231-.495.305v3.758c1.332-.11 2.397-.497 3.143-1.19.918-.85 1.382-2.15 1.382-3.862 0-1.714-.464-3.018-1.382-3.872-.887-.827-2.205-1.247-3.919-1.247zm6.413.632c-.437-.494-.9-.639-1.374-.45a5.503 5.503 0 011.385 2.11c.514-.5.524-1.055-.01-1.66zm2.095 10.306c-.293-.33-.77-.666-1.214-.921.44 1.025.686 2.208.686 3.573 0 .245-.03.474-.047.71.027 0 .057.006.084.006.047-.03.104-.07.134-.094l.199-.162c.621-.527 1.468-1.63.158-3.112zm1.475 4.11c.541.505.82 1.154.844 2.041 0 .037-.007.178-.02.262a7.42 7.42 0 01-.05.323l-.78 2.948c-.007.033-.03.06-.044.094-.007.023-.007.047-.02.067-.007.014-.02.024-.027.037-.024.034-.044.064-.074.09a2.346 2.346 0 01-.37.482c-.514.474-1.22.716-2.104.716-.884 0-1.593-.242-2.104-.716-.337-.31-.558-.71-.686-1.17-1.193.655-2.676.981-4.49.981-.024 0-.038-.003-.061-.003l-.06.003c-1.816 0-3.295-.326-4.492-.981-.127.464-.346.86-.682 1.17-.518.474-1.227.716-2.104.716-.884 0-1.59-.242-2.104-.716-.152-.138-.263-.31-.374-.481-.023-.027-.05-.057-.07-.09-.01-.014-.024-.024-.03-.038-.01-.02-.01-.047-.02-.067-.014-.034-.034-.06-.044-.094l-.78-2.948s-.04-.225-.054-.323a2.257 2.257 0 01-.02-.262c.027-.884.3-1.533.844-2.04.077-.07.164-.125.252-.185-1.1-1.153-1.664-3.005.027-4.911.726-.82 2.295-1.748 3.17-1.876.063-.01.09-.033.16-.047-.013-.027 0 0-.01-.027-.322-.837-.493-1.795-.493-2.884 0-.42.043-.813.094-1.196-.024-.014-.054-.007-.078-.02a3.081 3.081 0 01-.336-.232l-.168-.135c-.971-.82-1.617-2.33-.238-3.882C5.592-.373 7.218-.013 8.21.766c1.008-.49 2.208-.763 3.627-.763 1.418 0 2.618.273 3.627.763.991-.78 2.622-1.14 3.986.404 1.379 1.553.733 3.062-.242 3.882l-.164.135c-.064.05-.162.12-.34.231-.023.014-.05.01-.08.02.05.387.094.777.094 1.197 0 1.09-.172 2.047-.494 2.884l-.01.027c.067.014.094.037.157.047.874.128 2.444 1.056 3.174 1.876 1.687 1.906 1.122 3.755.023 4.91.084.058.175.115.252.186zM15.276 6.287c-.25 0-.444-.064-.579-.189-.14-.127-.211-.319-.211-.568 0-.248.07-.443.211-.568.135-.127.333-.191.579-.191.248 0 .443.064.578.191.141.128.208.32.208.568 0 .25-.07.44-.208.568-.135.125-.33.189-.578.189z" fill="#5CB615" fill-rule="nonzero"/></svg>
